build/img/icon-basket.svg

<svg width="19" height="17" viewBox="0 0 19 17" fill="none" xmlns="http://www.w3.org/2000/svg">
<path fill-rule="evenodd" clip-rule="evenodd" d="M0 0.894737C0 1.38889 0.400587 1.78947 0.894737 1.78947H2.83684L5.57617 7.67585C5.57474 7.67892 5.57333 7.68201 5.57193 7.68512L4.63178 9.77241C4.22591 10.6735 4.62738 11.733 5.52849 12.1389C5.75951 12.243 6.01001 12.2968 6.26339 12.2968H15.6598C16.154 12.2968 16.5545 11.8962 16.5545 11.402C16.5545 10.9079 16.154 10.5073 15.6598 10.5073H6.26339L6.86235 9.17751H14.954L18.7349 2.57387C18.9805 2.14504 18.8319 1.59836 18.403 1.35283C17.9742 1.1073 17.4275 1.2559 17.182 1.68473L13.9166 7.38803H7.41599L3.97783 0H0.894737C0.400587 0 0 0.400587 0 0.894737ZM8.94735 15.2105C8.94735 16.1988 8.14617 17 7.15787 17C6.16958 17 5.3684 16.1988 5.3684 15.2105C5.3684 14.2222 6.16958 13.4211 7.15787 13.4211C8.14617 13.4211 8.94735 14.2222 8.94735 15.2105ZM14.3157 17C15.304 17 16.1052 16.1988 16.1052 15.2105C16.1052 14.2222 15.304 13.4211 14.3157 13.4211C13.3274 13.4211 12.5263 14.2222 12.5263 15.2105C12.5263 16.1988 13.3274 17 14.3157 17Z" fill="#9B8869"/>
</svg>

<svg width="19" height="17" fill="none" xmlns="http://www.w3.org/2000/svg"><path fill-rule="evenodd" clip-rule="evenodd" d="M0 .895c0 .494.4.894.895.894h1.942l2.74 5.887a.789.789 0 00-.005.01l-.94 2.086a1.79 1.79 0 001.631 2.525h9.397a.895.895 0 100-1.79H6.263l.6-1.33h8.091l3.78-6.603a.895.895 0 10-1.552-.89l-3.265 5.704H7.416L3.978 0H.895C.4 0 0 .4 0 .895zM8.947 15.21a1.79 1.79 0 11-3.579 0 1.79 1.79 0 013.58 0zM14.316 17a1.79 1.79 0 100-3.579 1.79 1.79 0 000 3.579z" fill="#9B8869"/></svg>
